X:1
T:Quasi adagio
T:Allegro moderato
T:Béla Bartók Revised and Arranged by the Composer, January 1945 
T:Book 1 (after Hungarian Folksongs)
T:For Children Nr 15, Sz 42
C:Bela bartok
%%score { 1 | 2 }
L:1/8
Q:1/4=112
M:2/4
K:D
V:1 treble nm="Piano"
V:2 bass 
V:1
"^Allegro moderato,"!p! .!3!D.!2!D !tenuto!!1!D2 | .!3!G.F !tenuto!E2 | (.!5!A!1!D!2!C!1!D) | %3
 !tenuto!.!4
2
![CE]2 !tenuto!.!1!D2 | .!3!A.!2!A !1!A2 | .!4!d.c !tenuto!B2 | %6
 (!1!G!2!F).!1!G.!2!A | !tenuto!.!3!B2 !tenuto!.!2!A2 | %8
[Q:1/4=102]"^Sostenuto""_espr."!<(! (.!3!A.!2!A!<)! !1!A2) |!>(! (.!4!d.c!>)! B2) | %10
[Q:1/4=92]"^ritard.     -     -     -     -     -     -     -     -" (!1!G!2!F!1!GA | .B2 .A2) | %12
[Q:1/4=110]"^Tempo I.""_leggiero" .!4!D.!3!D.!2!D.!1!D | .!4!G.F !tenuto!E2 | .!5!A(D!2!C!1!D) | %15
 !tenuto!.!4
2
![CE]2 !tenuto!.!3
1
![A,D]2 | %16
[Q:1/4=102]"^Sostenuto""_espr."!<(! (.!3!A.!2!A !1!A2)!<)! |!>(! (.!4!d.c B2)!>)! | %18
[Q:1/4=92]"^ritard.     -     -     -     -     -     -     -     -" (!1!G!2!F!1!GA | .B2 .A2) | %20
"_leggiero"[Q:1/4=110]"^Tempo I." .!4!D.!3!D.!2!D.!1!D | .!4!G.F !tenuto!E2 | .!5!A(D!2!C!1!D) | %23
 !tenuto!.!4
2
![CE]2 !tenuto!.!1!D2 |] %24
V:2
 z2 .!1
3
5
![D,F,A,]2 | z2 .!1
2
5
![D,G,B,]2 | z2 .!1
2
4
![D,F,A,]2 | %3
 !tenuto!.!1
5
![A,,G,]2 !tenuto!.!2
4
![D,F,]2 | z2 .!1
2
5
![F,CD]2 | z2 .!1
3
5
![G,B,D]2 | %6
 z2 (!1
2
5
![E,A,-D-]2 | !4![^E,A,D]2 !1
2
3
![F,A,D]2) | z4 | !1
2
4
![B,-D-G]4 | [B,D]4 | %11
 !1
2
5
![G,CE]4 | z2 .!2
4
5
![E,G,B,]2 | z2 .!1
3
4
![G,_B,D]2 | z2 .!1
2
![F,A,]2 | %15
 !tenuto!.!1
5
![A,,G,]2 !tenuto!.!2
3
![D,F,]2 | z4 | !1
2
4
![B,-D-G]4 | [B,D]4 | [G,CE]4 | z4 | %21
 [G,_B,D]4 | z2 .[F,A,]2 | !tenuto!.[A,,G,]2 !tenuto!.[D,F,]2 |] %24

